Origami/32x32/apps/sqlitebrowser.svg

<svg width="32" height="32" version="1.1" viewBox="0 0 32 32" xmlns="http://www.w3.org/2000/svg">
 <path d="m16 17a14 7 0 0 0 -14 7 14 7 0 0 0 14 7 14 7 0 0 0 14 -7 14 7 0 0 0 -14 -7z" style="opacity:.2"/>
 <path d="m16 16a14 7 0 0 0 -14 7 14 7 0 0 0 14 7 14 7 0 0 0 14 -7 14 7 0 0 0 -14 -7z" style="fill:#696969"/>
 <path d="m16 10a14 7 0 0 0 -14 7 14 7 0 0 0 14 7 14 7 0 0 0 14 -7 14 7 0 0 0 -14 -7z" style="opacity:.2"/>
 <path d="m16 9a14 7 0 0 0 -14 7 14 7 0 0 0 14 7 14 7 0 0 0 14 -7 14 7 0 0 0 -14 -7z" style="fill:#919191"/>
 <path d="m16 3a14 7 0 0 0 -14 7 14 7 0 0 0 14 7 14 7 0 0 0 14 -7 14 7 0 0 0 -14 -7z" style="opacity:.2"/>
 <path d="m16 2a14 7 0 0 0 -14 7 14 7 0 0 0 14 7 14 7 0 0 0 14 -7 14 7 0 0 0 -14 -7z" style="fill:#cccccc"/>
 <path d="M 16 2 A 14 7 0 0 0 2 9 A 14 7 0 0 0 2.046875 9.4589844 A 14 7 0 0 1 16 3 A 14 7 0 0 1 29.953125 9.5410156 A 14 7 0 0 0 30 9 A 14 7 0 0 0 16 2 z" style="fill:#ffffff;opacity:.2"/>
</svg>

<svg xmlns="http://www.w3.org/2000/svg" width="32" height="32" version="1.1" viewBox="0 0 32 32">
 <path style="opacity:0.2" d="M 16,17 A 14,7 0 0 0 1.9999999,24 14,7 0 0 0 16,31 14,7 0 0 0 30,24 14,7 0 0 0 16,17 Z"/>
 <path style="fill:#696969" d="M 16,16 A 14,7 0 0 0 1.9999999,23 14,7 0 0 0 16,30 14,7 0 0 0 30,23 14,7 0 0 0 16,16 Z"/>
 <path style="opacity:0.2" d="M 16,10 A 14,7 0 0 0 1.9999999,17 14,7 0 0 0 16,24 14,7 0 0 0 30,17 14,7 0 0 0 16,10 Z"/>
 <path style="fill:#919191" d="M 16,9 A 14,7 0 0 0 1.9999999,16 14,7 0 0 0 16,23 14,7 0 0 0 30,16 14,7 0 0 0 16,9 Z"/>
 <path style="opacity:0.2" d="M 16,3 A 14,7 0 0 0 1.9999999,10 14,7 0 0 0 16,17 14,7 0 0 0 30,10 14,7 0 0 0 16,3 Z"/>
 <path style="fill:#cccccc" d="M 16,2 A 14,7 0 0 0 1.9999999,9 14,7 0 0 0 16,16 14,7 0 0 0 30,9 14,7 0 0 0 16,2 Z"/>
 <path style="fill:#ffffff;opacity:0.2" d="M 16 2 A 14 7 0 0 0 2 9 A 14 7 0 0 0 2.046875 9.4589844 A 14 7 0 0 1 16 3 A 14 7 0 0 1 29.953125 9.5410156 A 14 7 0 0 0 30 9 A 14 7 0 0 0 16 2 z"/>
</svg>
